X:25
T: Gemalte Rosen
N: D0027
O: Europa, Mitteleuropa, Lothringen, Gebenhausen
N: Inzipit = Variante zum Lied
R: Ballade, Liebe
M: 2/2
L: 1/8
K: D
A2 | d2A2A2A2 | B2A2A2
A2 | B3GG2F2 | F4E4
D4F4 | A6z2
A4c4 | e6
d2 | c2B2A2G2 | G4F2

